X: 081
T: Joe the Volunteer
%R: march, reel
B: Thompson's Twenty four Country Dances (for the Year 1804) p.8 #1
S: http://folkopedia.efdss.org/images/2/28/Thompson24_1804.PDF  2014-8-2
Z: 2014 John Chambers <jc:trillian.mit.edu>
N: The 2nd strand has a final repeat, but no initial repeat. Not fixed (but note the "D.C.")
M: 2/4
L: 1/16
K: C
G2 |\
c2c2 dcBA | G2GA E2F2 | G2C2c2e2 | e4 d2cd |\
efde c2B2 | dcBA G2gf | egec G2B2 | c3dc2 :|
Bc |\
d3ed2g2 | ^f2g2d2B2 | c2ec A2cA | G4 ^F2D2 |\
E2G2 cBAG | ^F2A2 d2cB | ceAc B2A2 | G3A"_D.C."G2 :|
% - - - - - - - - - - - - - - - - - - - - - - - - -
%%begintext align
%% Change sides and back again hands across
%% and back again Cross over two Cu: hands four
%% with the bottom Cu: and Right and left at top.
%%endtext
% - - - - - - - - - - - - - - - - - - - - - - - - -
